X: 35
T: Missa Et trop penser &mdash; Kyrie
C: Gaspar van Weerbeke
%%abc-version 2.0
%%abcx-abcm2ps-target-version 5.9.1 (29 Sep 2008)
%%abc-creator hum2abc beta
%%abcx-conversion-date 2022/03/06 13:05:56
%%abc-copyright Copyright 2016, Kolb, Paul
%%abc-edited-by Zybina, Karina
%%humdrum-veritas 3954544547
%%humdrum-veritas-data 2009955170
%%linebreak <none>
%%barnumbers 0
L: 1/4
M: 3/2
N: Derived from Gas0202a-Missa_Et_trop_penser-Kyrie.krn
%%staves [1 2 3 4]
V: 1 clef=treble
V: 2 clef=treble-8
V: 3 clef=treble-8
V: 4 clef=bass
K: F
[V:1] G4G2 | 
[V:2] G6- | 
[V:3] z6 | 
[V:4] G,,>A,,B,,C,B,,C, | 
[V:1] B2B>AGF/E/ | 
[V:2] G6 | 
[V:3] z6 | 
[V:4] G,,4C,2 | 
[V:1] D2zG>AB- | 
[V:2] B4Gd- | 
[V:3] z6 | 
[V:4] B,,G,,2B,,C,B,, | 
[V:1] BA/G<FG/A2 | 
[V:2] d/c/BA>Bc2 | 
[V:3] z6 | 
[V:4] G,,2D,C,/B,,/A,,2 | 
[V:1] B2G2A2 | 
[V:2] d2Bc2A | 
[V:3] z6 | 
[V:4] G,,G,2E,F,2 | 
[V:1] zDF2_E2 | 
[V:2] G2ABc2 | 
[V:3] z6 | 
[V:4] G,>F,D,2zC, | 
[V:1] DG2FG_E | 
[V:2] d_e>dd2c | 
[V:3] z6 | 
[V:4] B,,C,2D,_E,2 | 
[V:1] F2zB>AA | 
[V:2] d2>B2c2 | 
[V:3] z6 | 
[V:4] D,>E,F,G,F,2 | 
[V:1] GF2DC2 | 
[V:2] _ed>cB2A | 
[V:3] z6 | 
[V:4] C,D,B,,2F,2 | 
[V:1] B,D2C/B,/A,2 | 
[V:2] GF/_E/DG2^F | 
[V:3] z6 | 
[V:4] zB,,2C,D,2 | 
[V:1] zG2F/_E/DC- | 
[V:2] G2B>cd_e- | 
[V:3] G6- | 
[V:4] G,,2G,,>A,,B,,C,- | 
[V:1] CG2c2=B | 
[V:2] e/d/B2cd2 | 
[V:3] G4B2 | 
[V:4] C,/D,/_E,2C,G,2 | 
[V:1] c2z2c2 | 
[V:2] c2c>d_e2 | 
[V:3] G4A2 | 
[V:4] C,4C,2 | 
[V:1] d>cBA/G/FG | 
[V:2] d2zd2G | 
[V:3] B6 | 
[V:4] B,,2B,,>C,D,_E, | 
[V:1] FB>ABcA- | 
[V:2] AGg2ef- | 
[V:3] d4c2- | 
[V:4] D,G,>F,G,A,F,- | 
[V:1] A/G/ABG>FG | 
[V:2] f/g/fd_e>f=e | 
[V:3] c2B4 | 
[V:4] F,/E,/F,G,_E,>D,=E, | 
[V:1] AFG/F/E/D/E2 | 
[V:2] c4z2 | 
[V:3] A2G4 | 
[V:4] F,2C,4 | 
[V:1] F2z2z2 | 
[V:2] A>BcB/A/Gc- | 
[V:3] F2z2z2 | 
[V:4] D,2zC,_E,2 | 
[V:1] z6 | 
[V:2] cd2ef/e/d/c/ | 
[V:3] GB2G2^F | 
[V:4] C,B,,2C,A,,2 | 
[V:1] GB2G2^F | 
[V:2] Bd2BA2 | 
[V:3] G4A2 | 
[V:4] G,,2zG,,D,2 | 
[V:1] Gd2BA2 | 
[V:2] GB2G2^F | 
[V:3] B2d4 | 
[V:4] G,,4D,2 | 
[V:1] GBAB2A/G/ | 
[V:2] G2z2B3/c/ | 
[V:3] d>Bcd2B | 
[V:4] zG,A,D,G,2 | 
[V:1] FA>DG2^F | 
[V:2] d/e<fe/dcA | 
[V:3] A>DFGA2 | 
[V:4] D,>C,A,,B,,C,D, | 
[V:1] G6- | 
[V:2] B3_E>D_E/D/ | 
[V:3] G6- | 
[V:4] G,,>A,,B,,C,>B,,C,/B,,/ | 
[V:1] G4 ||  
[V:2] D4 ||  
[V:3] G4 ||  
[V:4] G,,4 ||  
[V:1] [M:2/2]D4 | 
[V:2] [M:2/2]G3B- | 
[V:3] [M:2/2]z4 | 
[V:4] [M:2/2]z4 | 
[V:1] D2A,2- | 
[V:2] BA/G/F2 | 
[V:3] z4 | 
[V:4] z4 | 
[V:1] A,2B,2 | 
[V:2] DF2G | 
[V:3] z4 | 
[V:4] z4 | 
[V:1] C4 | 
[V:2] AG/F/E2 | 
[V:3] z4 | 
[V:4] z4 | 
[V:1] D4 | 
[V:2] z4 | 
[V:3] z4 | 
[V:4] D,>E,F,G,- | 
[V:1] C2B,2 | 
[V:2] z4 | 
[V:3] z4 | 
[V:4] G,A,B,G,- | 
[V:1] A,4 | 
[V:2] z4 | 
[V:3] z4 | 
[V:4] G,^F,/E,/F,2 | 
[V:1] G,4 | 
[V:2] z4 | 
[V:3] z4 | 
[V:4] G,4 | 
[V:1] z4 | 
[V:2] d4 | 
[V:3] z4 | 
[V:4] G,2D,2 | 
[V:1] z4 | 
[V:2] d2A2 | 
[V:3] z4 | 
[V:4] z2D,2 | 
[V:1] z4 | 
[V:2] z2A2 | 
[V:3] z4 | 
[V:4] E,2F,2 | 
[V:1] z4 | 
[V:2] B2c2 | 
[V:3] z4 | 
[V:4] G,2E,F, | 
[V:1] z4 | 
[V:2] d2d2 | 
[V:3] z4 | 
[V:4] D,G,>A,B, | 
[V:1] z4 | 
[V:2] c2BA- | 
[V:3] z4 | 
[V:4] A,/G,/F,/E,/D,2 | 
[V:1] z2zG- | 
[V:2] A/G/F/E/D2 | 
[V:3] z4 | 
[V:4] C,2B,,2 | 
[V:1] G^F/E/F2 | 
[V:2] z4 | 
[V:3] z4 | 
[V:4] A,,4 | 
[V:1] G2B2 | 
[V:2] z2zG- | 
[V:3] z4 | 
[V:4] G,,4 | 
[V:1] A4 | 
[V:2] G^F/E/^F2 | 
[V:3] z4 | 
[V:4] z2D,2 | 
[V:1] z2zG- | 
[V:2] G2B2 | 
[V:3] z4 | 
[V:4] G,,C,B,,G,, | 
[V:1] GF/E/ F/E/D/C/ | 
[V:2] A4 | 
[V:3] z4 | 
[V:4] D,2z2 | 
[V:1] B,>CD_E- | 
[V:2] G>F _E/D/C- | 
[V:3] z4 | 
[V:4] z4 | 
[V:1] E/D/C/B,/A,2 | 
[V:2] CG2^F | 
[V:3] z4 | 
[V:4] z2D,2 | 
[V:1] z2D2 | 
[V:2] G2z2 | 
[V:3] z4 | 
[V:4] G,,C,2B,, | 
[V:1] G,C2D | 
[V:2] z4 | 
[V:3] z4 | 
[V:4] C,_E,D,C,/B,,/ | 
[V:1] E>FG2 | 
[V:2] c>d_ed- | 
[V:3] z4 | 
[V:4] A,,2G,,2 | 
[V:1] z4 | 
[V:2] dc/B/Ac- | 
[V:3] z4 | 
[V:4] G,2F,_E,- | 
[V:1] zB2A | 
[V:2] cB_e2 | 
[V:3] z4 | 
[V:4] E,D,C,2 | 
[V:1] B3A/G/ | 
[V:2] d3c/B/ | 
[V:3] z4 | 
[V:4] B,,2z2 | 
[V:1] FG>FA- | 
[V:2] ABAc- | 
[V:3] z4 | 
[V:4] z4 | 
[V:1] A/G/F/E/DE- | 
[V:2] c/B/A/G/FG- | 
[V:3] z4 | 
[V:4] z4 | 
[V:1] E/D/G2^F | 
[V:2] G/F/BA2 | 
[V:3] z4 | 
[V:4] z2D,2 | 
[V:1] G4 | 
[V:2] G2z2 | 
[V:3] z4 | 
[V:4] B,,C,2B,,/A,,/ | 
[V:1] z4 | 
[V:2] G2EF- | 
[V:3] z4 | 
[V:4] G,,C,2D,- | 
[V:1] z2G2 | 
[V:2] FE/D/Cc- | 
[V:3] z4 | 
[V:4] D,/A,,/=B,,C,3/D,/ | 
[V:1] EF2E/D/ | 
[V:2] cd>A=B | 
[V:3] z4 | 
[V:4] E,D,F,G, | 
[V:1] Cc2d- | 
[V:2] c2ef | 
[V:3] z4 | 
[V:4] A,B,CF, | 
[V:1] d/A/=Bc2 | 
[V:2] d2zc- | 
[V:3] z4 | 
[V:4] G,2C,2 | 
[V:1] c2AB | 
[V:2] cf2d | 
[V:3] z4 | 
[V:4] F,>G,A,G, | 
[V:1] GA2F | 
[V:2] _ecd2 | 
[V:3] z4 | 
[V:4] _E,F,2D, | 
[V:1] GEF2 | 
[V:2] BcAB- | 
[V:3] z4 | 
[V:4] _E,C,D,2 | 
[V:1] DECD- | 
[V:2] BGA/G/F/E/ | 
[V:3] z4 | 
[V:4] B,,C,A,,B,,- | 
[V:1] DC/B,/A,2 | 
[V:2] DG2^F | 
[V:3] z4 | 
[V:4] B,,G,,D,2 | 
[V:1] zGAB- | 
[V:2] G2z2 | 
[V:3] z4 | 
[V:4] zG,F,D,- | 
[V:1] BA/G/AB | 
[V:2] z4 | 
[V:3] z4 | 
[V:4] D,C,/B,,/A,,G,, | 
[V:1] G2z2 | 
[V:2] GBcd- | 
[V:3] z4 | 
[V:4] zG,A,B,- | 
[V:1] z4 | 
[V:2] dc/B/AG | 
[V:3] z4 | 
[V:4] B,A,/G,/A,B, | 
[V:1] GBcd- | 
[V:2] zGAB- | 
[V:3] z4 | 
[V:4] G,2z2 | 
[V:1] dc/B/AG | 
[V:2] BA/G/AB | 
[V:3] z4 | 
[V:4] z4 | 
[V:1] z4 | 
[V:2] G2Bc- | 
[V:3] z4 | 
[V:4] B,2G,A,- | 
[V:1] z4 | 
[V:2] cd2B | 
[V:3] z4 | 
[V:4] A,/G,/F,/E,/D,G,- | 
[V:1] z2B2 | 
[V:2] A2G_e- | 
[V:3] z4 | 
[V:4] G,^F,G,2 | 
[V:1] GA>GF/E/ | 
[V:2] ecd3/c/ | 
[V:3] z4 | 
[V:4] C,F,2D, | 
[V:1] DG2^F | 
[V:2] B/A/GA2 | 
[V:3] z4 | 
[V:4] G,E,D,2 | 
[V:1] G4 ||  
[V:2] G4 ||  
[V:3] z4 ||  
[V:4] G,,4 ||  
[V:1] [M:3/2]F6 | 
[V:2] [M:3/2]A3B2A/G/ | 
[V:3] [M:3/2]d6- | 
[V:4] [M:3/2]D,6- | 
[V:1] A4B2 | 
[V:2] F>GA2G2 | 
[V:3] d6 | 
[V:4] D,4G,2 | 
[V:1] c3B/A/G2 | 
[V:2] zc2de2 | 
[V:3] A2>B2c2 | 
[V:4] F,4E,2 | 
[V:1] F>GAB>AB | 
[V:2] A3d2c/B/ | 
[V:3] d6 | 
[V:4] D,4G,,2 | 
[V:1] cA>GF/E/DG- | 
[V:2] A4BG | 
[V:3] c4B2- | 
[V:4] F,4G,2 | 
[V:1] G/F/GA^FF3/E/ | 
[V:2] d2cAd2 | 
[V:3] B2A4 | 
[V:4] G,,B,,>C,D,>C,D, | 
[V:1] G4z2 | 
[V:2] Bc2B2A | 
[V:3] G6 | 
[V:4] _E,2>D,2C,2 | 
[V:1] d4d2 | 
[V:2] B>c d/e/f2B | 
[V:3] z2z2d2- | 
[V:4] B,,6 | 
[V:1] A2>B2c2 | 
[V:2] f2>d2e2 | 
[V:3] d2d2A2 | 
[V:4] D,4z2 | 
[V:1] d3c/B/ c/B/A/G/ | 
[V:2] d2z2G2 | 
[V:3] zABd2c | 
[V:4] D,2G,D,_E,2 | 
[V:1] FA2G2^F | 
[V:2] A2z2z2 | 
[V:3] d2cBA2 | 
[V:4] D,>E,F,G,D,2 | 
[V:1] G4z2 | 
[V:2] GB2G2F | 
[V:3] G2z2z2 | 
[V:4] G,,2zG,,B,,2 | 
[V:1] GB2G2F | 
[V:2] G>AB>cd2 | 
[V:3] z2zGB2 | 
[V:4] G,,4zD, | 
[V:1] GBcd>cB | 
[V:2] g>f_edfF/G/ | 
[V:3] G2ABd2 | 
[V:4] _E,>D,C,B,,>C,D,/E,/ | 
[V:1] AG2F2E | 
[V:2] A/B/c2Bc2 | 
[V:3] c2AFG2 | 
[V:4] F,C,D,2C,2 | 
[V:1] F2z2z2 | 
[V:2] AFB2Gc- | 
[V:3] F2z2z2 | 
[V:4] D,2B,,_E,2C, | 
[V:1] z6 | 
[V:2] c/B/A/G/FG2^F | 
[V:3] z6 | 
[V:4] F,>_E, D,/C,/B,,A,,2 | 
[V:1] GB>AG>AB/c/ | 
[V:2] G3B>cd- | 
[V:3] z2zGB2 | 
[V:4] G,,6 | 
[V:1] d>cBAGE | 
[V:2] d/c/B/A/GABG | 
[V:3] G>A B/c/d2c | 
[V:4] zG,2F,_E,2 | 
[V:1] FA2G2^F | 
[V:2] A2Dd3 | 
[V:3] d2>B2A2 | 
[V:4] D,>E,F,G,D,2 | 
[V:1] G6- | 
[V:2] B>GB>c_ed | 
[V:3] G6- | 
[V:4] G,,6- | 
[V:1] G4 |]  
[V:2] d4 |]  
[V:3] G4 |]  
[V:4] G,,4 |]  


